X:135
T: Wo sui hongjun nao geming
N: C0226
O: China, Sichuan, Daxian
S: II, 232]
N: jetzt: "revolutionaeres historisches Volkslied"
N: Vereinzelt Verzierungen.
R: Shange, Manganyang. Geming lishi minge]
M: 2/4
L: 1/16
K: A
B3cB2c2 | B2c4ce | B2cBB4 |
B2c4ce | B2cBB4 |
BcBcB2c2 | e2cec4 |
B3ec2B2 | BcF2A4 |
B2c2A2B2 | B2A2F4

